!!!COM: Bach, Johann Sebastian
!!!CDT: 1685/02/21/-1750/07/28/
!!!OTL@@DE: Jesu, meine Freude
!!!SCT: BWV 87/7
!!!PC#: 96
!!!AGN: chorale
**harm	**kern	**kern	**kern	**kern
*	*ICvox	*ICvox	*ICvox	*ICvox
*	*Ibass	*Itenor	*Ialto	*Isoprn
*	*I"Bass	*I"Tenor	*I"Alto	*I"Soprano
*>[A,A,B]	*>[A,A,B]	*>[A,A,B]	*>[A,A,B]	*>[A,A,B]
*>norep[A,B]	*>norep[A,B]	*>norep[A,B]	*>norep[A,B]	*>norep[A,B]
*>A	*>A	*>A	*>A	*>A
*	*	*oclefC4	*oclefC3	*oclefC1
*	*clefF4	*clefGv2	*clefG2	*clefG2
*k[b-]	*k[b-]	*k[b-]	*k[b-]	*k[b-]
*d:	*d:	*d:	*d:	*d:
*M4/4	*M4/4	*M4/4	*M4/4	*M4/4
*met(c)	*met(c)	*met(c)	*met(c)	*met(c)
*MM100	*MM100	*MM100	*MM100	*MM100
=1-	=1-	=1-	=1-	=1-
i	4D	4d	4f	4a
i6	4F	4d	4f	4a
ii%43	4B-X	4d	4e	4g
i64	4A	4d	4d	4f
=2	=2	=2	=2	=2
V	4A	4A	4c#	4e
V7	4AA	4G	4c#	4e
i;	2D;	2F;	2A;	2d;
=3	=3	=3	=3	=3
i	4D	4d	4f	4a
i6	4F	4d	4f	4a
IV7	4G	4d	4f	4b
viio6	4E	4e	4g	4cc#
=4	=4	=4	=4	=4
i6	4F	4d	4a	4dd
ii%43	4B-X	4e	4g	4dd
V;	2A;	2e;	2a;	2cc#;
=5	=5	=5	=5	=5
i6	4F	4A	4a	4dd
i	4D	4d	4a	4ff
ii%65	4G	4d	4b-X	4ee
V7	4A	4c#	4g	4ee
=6	=6	=6	=6	=6
i;	1D;	1A;	1f;	1dd;
=7:|!	=7:|!	=7:|!	=7:|!	=7:|!
*>B	*>B	*>B	*>B	*>B
i	4D	4d	4fL	4a
i6	4F	4d	4a	4a
iv	4G	4d	4g	4b-
F:I6	4A	4c	4f	4a
=8	=8	=8	=8	=8
V	4c	4c	4e	4g
V7	4C	4B-	4e	4g
I;	2F;	2A;	2c;	2f;
=9	=9	=9	=9	=9
I	4F	4c	4f	4a
viio6/V	4D	4d	4f	4b
V6	4E	4e	4g	4cc
a:V2/iv	4G	4c#	4e	4a
=10	=10	=10	=10	=10
IV6	8F#L	8AL	8aL	8ddL
V65	8G#J	8BJ	8eJ	8ddJ
i	8AL	8cnXL	8eL	8ccL
ii%65	8DJ	8AJ	8fJ	8bJ
V7	2E	2G#X	2d	2b
=11	=11	=11	=11	=11
I;	2AA;	2A;	2c#;	2a;
d:i	4D	4F	4d	4a
i6	4F	4A	4d	4dd
=12	=12	=12	=12	=12
iv6	4B-	4G	4d	4g
i64	8AL	8AL	8dL	8fL
ii%65	8GJ	8B-J	8dJ	8eJ
V(54)	4A	4A	4d	4e
V7	4AA	4G	4c#	4e
=13	=13	=13	=13	=13
I;	1D;	1F#;	1A;	1d;
==	==	==	==	==
*-	*-	*-	*-	*-
!!!YOR1: 371 vierstimmige Choralges&auml;nge von Johann Sebastian Bach, 
!!!YOR2: 4th ed. by Alfred D&ouml;rffel (Leipzig: Breitkopf und H&auml;rtel, 
!!!YOR2: c.1875). 178 pp. Plate "V.A.10".  reprint: J.S. Bach, 371 Four-Part 
!!!YOR4: Chorales (New York: Associated Music Publishers, Inc., c.1940).
!!!SMS: B&H, 4th ed, Alfred D&ouml;rffel, c.1875, plate V.A.10
!!!EED:  Craig Stuart Sapp
!!!EEV:  2009/05/22
